TH1/ticky.svg

<svg xmlns="http://www.w3.org/2000/svg" viewBox="0 0 1200 800" preserveAspectRatio="none" width="1200" height="800">
 <path d="M0,0H1200V800H0Z" style="fill: white;"></path>
 <g>
  <g transform="translate(120,80)">
   <path d="M0,0H960V640H0Z" style="fill: white; stroke: black; stroke-width: 1;"></path>
   <svg x="0" y="0" overflow="hidden" width="960" height="640" viewBox="0 0 960 640">
    <g>
     <path d="M0,640h19v-1h10v1h38v-2h10v-1h19v-2h10v1h9v-4h10v-2h9v-1h10v-5h19v-7h10v-5h9v-11h10v5h10v-15h9v7h10v-18h9v-21h10v-1h10v-3h9v-36h10v-6h9v-11h10v-17h10v-47h9v-3h10v-25h9v-12h10v-37h10v-14h9v-51h10v-35h19v-39h10v-27h9v-69h10v32h9v-54h10v45h10v-53h9v-27h10v17h9v24h10v-36h10v-44h9v73h10v2h9v12h10v4h10v49h9v17h10v12h9v25h10v16h10v9h9v36h10v44h9v13h10v21h10v63h9v-6h10v29h9v24h10v15h10v22h9v18h10v23h9v-1h10v21h10v6h9v16h10v3h9v12h10v7h10v-8h9v12h10v5h9v4h20v4h9v-1h10v7h9v-4h10v2h10v3h28v1h48v-1h10" style="stroke-linejoin: miter; stroke: #00009a; stroke-width: 1; fill: none;"></path>
    </g>
   </svg>
   <g>
    <g transform="translate(0,640)">
     <path d="M0,0h960M0,-24v24m24,-12v12m24,-12v12m24,-12v12m24,-12v12m24,-24v24m24,-12v12m24,-12v12m24,-12v12m24,-12v12m24,-24v24m24,-12v12m24,-12v12m24,-12v12m24,-12v12m24,-24v24m24,-12v12m24,-12v12m24,-12v12m24,-12v12m24,-24v24m24,-12v12m24,-12v12m24,-12v12m24,-12v12m24,-24v24m24,-12v12m24,-12v12m24,-12v12m24,-12v12m24,-24v24m24,-12v12m24,-12v12m24,-12v12m24,-12v12m24,-24v24m24,-12v12m24,-12v12m24,-12v12m24,-12v12m24,-24v24" style="stroke: black; stroke-width: 1;"></path>
     <g font-family="Arial" font-size="28" space="preserve" fill="black" text-anchor="middle">
      <text dy=".8em" transform="translate(0,6)">
       -4
      </text>
      <text dy=".8em" transform="translate(120,6)">
       -3
      </text>
      <text dy=".8em" transform="translate(240,6)">
       -2
      </text>
      <text dy=".8em" transform="translate(360,6)">
       -1
      </text>
      <text dy=".8em" transform="translate(480,6)">
       0
      </text>
      <text dy=".8em" transform="translate(600,6)">
       1
      </text>
      <text dy=".8em" transform="translate(720,6)">
       2
      </text>
      <text dy=".8em" transform="translate(840,6)">
       3
      </text>
      <text dy=".8em" transform="translate(960,6)">
       4
      </text>
     </g>
    </g>
    <g>
     <path d="M0,0v640M960,0v640M36,640h-36m18,-14h-18m18,-14h-18m18,-14h-18m18,-15h-18m36,-14h-36m18,-14h-18m18,-14h-18m18,-14h-18m18,-14h-18m36,-14h-36m18,-14h-18m18,-15h-18m18,-14h-18m18,-14h-18m36,-14h-36m18,-14h-18m18,-14h-18m18,-14h-18m18,-14h-18m36,-15h-36m18,-14h-18m18,-14h-18m18,-14h-18m18,-14h-18m36,-14h-36m18,-14h-18m18,-14h-18m18,-15h-18m18,-14h-18m36,-14h-36m18,-14h-18m18,-14h-18m18,-14h-18m18,-14h-18m36,-14h-36m18,-15h-18m18,-14h-18m18,-14h-18m18,-14h-18m36,-14h-36m18,-14h-18m18,-14h-18m18,-14h-18m18,-15h-18m36,-14h-36M924,640H960M942,626H960M942,612H960M942,598H960M942,583H960M924,569H960M942,555H960M942,541H960M942,527H960M942,513H960M924,499H960M942,485H960M942,470H960M942,456H960M942,442H960M924,428H960M942,414H960M942,400H960M942,386H960M942,372H960M924,357H960M942,343H960M942,329H960M942,315H960M942,301H960M924,287H960M942,273H960M942,259H960M942,244H960M942,230H960M924,216H960M942,202H960M942,188H960M942,174H960M942,160H960M924,146H960M942,131H960M942,117H960M942,103H960M942,89H960M924,75H960M942,61H960M942,47H960M942,33H960M942,18H960M924,4H960" style="stroke: black; stroke-width: 1;"></path>
     <g font-family="Arial" font-size="28" space="preserve" fill="black" text-anchor="end">
      <text dy=".4em" transform="translate(-4,640)">
       0
      </text>
      <text dy=".4em" transform="translate(-4,569)">
       100
      </text>
      <text dy=".4em" transform="translate(-4,499)">
       200
      </text>
      <text dy=".4em" transform="translate(-4,428)">
       300
      </text>
      <text dy=".4em" transform="translate(-4,357)">
       400
      </text>
      <text dy=".4em" transform="translate(-4,287)">
       500
      </text>
      <text dy=".4em" transform="translate(-4,216)">
       600
      </text>
      <text dy=".4em" transform="translate(-4,146)">
       700
      </text>
      <text dy=".4em" transform="translate(-4,75)">
       800
      </text>
      <text dy=".4em" transform="translate(-4,4)">
       900
      </text>
     </g>
    </g>
   </g>
  </g>
  <g transform="translate(120,4)" font-family="Arial" font-size="40" space="preserve">
   <text fill="black" text-anchor="middle" dy=".8em" transform="translate(480)">
    This is the px distribution
   </text>
  </g>
  <g transform="translate(936,52)" font-family="Arial" font-size="25" space="preserve" fill="black">
   <path d="M0,0H240V128H0Z" style="fill: white; stroke: black; stroke-width: 1;"></path>
   <text text-anchor="middle" dy=".4em" transform="translate(120,16)">
    hpx
   </text>
   <text text-anchor="start" dy=".4em" transform="translate(12,48)">
    Entries
   </text>
   <text text-anchor="end" dy=".4em" transform="translate(228,48)">
    25000
   </text>
   <text text-anchor="start" dy=".4em" transform="translate(12,80)">
    Mean
   </text>
   <text text-anchor="end" dy=".4em" transform="translate(228,80)">
    0.003163
   </text>
   <text text-anchor="start" dy=".4em" transform="translate(12,112)">
    Std Dev
   </text>
   <text text-anchor="end" dy=".4em" transform="translate(228,112)">
    1.004
   </text>
   <path d="M0,32h240" style="stroke: black; stroke-width: 1;"></path>
  </g>
 </g>
</svg>

<svg xmlns="http://www.w3.org/2000/svg" viewBox="0 0 1200 800" preserveAspectRatio="none" width="1200" height="800">
 <path d="M0,0H1200V800H0Z" style="fill: white;"></path>
 <g>
  <g transform="translate(120,80)">
   <path d="M0,0H960V640H0Z" style="fill: white; stroke: black; stroke-width: 1;"></path>
   <svg x="0" y="0" overflow="hidden" width="960" height="640" viewBox="0 0 960 640">
    <g>
     <path d="M0,640h19v-1h10v1h38v-2h10v-1h19v-2h10v1h9v-4h10v-2h9v-1h10v-5h19v-7h10v-5h9v-11h10v5h10v-15h9v7h10v-18h9v-21h10v-1h10v-3h9v-36h10v-6h9v-11h10v-17h10v-47h9v-3h10v-25h9v-12h10v-37h10v-14h9v-51h10v-35h19v-39h10v-27h9v-69h10v32h9v-54h10v45h10v-53h9v-27h10v17h9v24h10v-36h10v-44h9v73h10v2h9v12h10v4h10v49h9v17h10v12h9v25h10v16h10v9h9v36h10v44h9v13h10v21h10v63h9v-6h10v29h9v24h10v15h10v22h9v18h10v23h9v-1h10v21h10v6h9v16h10v3h9v12h10v7h10v-8h9v12h10v5h9v4h20v4h9v-1h10v7h9v-4h10v2h10v3h28v1h48v-1h10" style="stroke-linejoin: miter; stroke: #00009a; stroke-width: 1; fill: none;"></path>
    </g>
   </svg>
   <g>
    <g transform="translate(0,640)">
     <path d="M0,0h960M0,-24V0M24,-12V0M48,-12V0M72,-12V0M96,-12V0M120,-24V0M144,-12V0M168,-12V0M192,-12V0M216,-12V0M240,-24V0M264,-12V0M288,-12V0M312,-12V0M336,-12V0M360,-24V0M384,-12V0M408,-12V0M432,-12V0M456,-12V0M480,-24V0M504,-12V0M528,-12V0M552,-12V0M576,-12V0M600,-24V0M624,-12V0M648,-12V0M672,-12V0M696,-12V0M720,-24V0M744,-12V0M768,-12V0M792,-12V0M816,-12V0M840,-24V0M864,-12V0M888,-12V0M912,-12V0M936,-12V0M960,-24V0" style="stroke: black; stroke-width: 1;"></path>
     <g font-family="Arial" font-size="28" space="preserve" fill="black" text-anchor="middle">
      <text dy=".8em" transform="translate(0,6)">
       -4
      </text>
      <text dy=".8em" transform="translate(120,6)">
       -3
      </text>
      <text dy=".8em" transform="translate(240,6)">
       -2
      </text>
      <text dy=".8em" transform="translate(360,6)">
       -1
      </text>
      <text dy=".8em" transform="translate(480,6)">
       0
      </text>
      <text dy=".8em" transform="translate(600,6)">
       1
      </text>
      <text dy=".8em" transform="translate(720,6)">
       2
      </text>
      <text dy=".8em" transform="translate(840,6)">
       3
      </text>
      <text dy=".8em" transform="translate(960,6)">
       4
      </text>
     </g>
    </g>
    <g>
     <path d="M0,0v640M960,0v640M36,640H0M18,626H0M18,612H0M18,598H0M18,583H0M36,569H0M18,555H0M18,541H0M18,527H0M18,513H0M36,499H0M18,485H0M18,470H0M18,456H0M18,442H0M36,428H0M18,414H0M18,400H0M18,386H0M18,372H0M36,357H0M18,343H0M18,329H0M18,315H0M18,301H0M36,287H0M18,273H0M18,259H0M18,244H0M18,230H0M36,216H0M18,202H0M18,188H0M18,174H0M18,160H0M36,146H0M18,131H0M18,117H0M18,103H0M18,89H0M36,75H0M18,61H0M18,47H0M18,33H0M18,18H0M36,4H0M924,640H960M942,626H960M942,612H960M942,598H960M942,583H960M924,569H960M942,555H960M942,541H960M942,527H960M942,513H960M924,499H960M942,485H960M942,470H960M942,456H960M942,442H960M924,428H960M942,414H960M942,400H960M942,386H960M942,372H960M924,357H960M942,343H960M942,329H960M942,315H960M942,301H960M924,287H960M942,273H960M942,259H960M942,244H960M942,230H960M924,216H960M942,202H960M942,188H960M942,174H960M942,160H960M924,146H960M942,131H960M942,117H960M942,103H960M942,89H960M924,75H960M942,61H960M942,47H960M942,33H960M942,18H960M924,4H960" style="stroke: black; stroke-width: 1;"></path>
     <g font-family="Arial" font-size="28" space="preserve" fill="black" text-anchor="end">
      <text dy=".4em" transform="translate(-4,640)">
       0
      </text>
      <text dy=".4em" transform="translate(-4,569)">
       100
      </text>
      <text dy=".4em" transform="translate(-4,499)">
       200
      </text>
      <text dy=".4em" transform="translate(-4,428)">
       300
      </text>
      <text dy=".4em" transform="translate(-4,357)">
       400
      </text>
      <text dy=".4em" transform="translate(-4,287)">
       500
      </text>
      <text dy=".4em" transform="translate(-4,216)">
       600
      </text>
      <text dy=".4em" transform="translate(-4,146)">
       700
      </text>
      <text dy=".4em" transform="translate(-4,75)">
       800
      </text>
      <text dy=".4em" transform="translate(-4,4)">
       900
      </text>
     </g>
    </g>
   </g>
  </g>
  <g transform="translate(120,4)" font-family="Arial" font-size="40" space="preserve">
   <text fill="black" text-anchor="middle" dy=".8em" transform="translate(480)">
    This is the px distribution
   </text>
  </g>
  <g transform="translate(936,52)" font-family="Arial" font-size="25" space="preserve" fill="black">
   <path d="M0,0H240V128H0Z" style="fill: white; stroke: black; stroke-width: 1;"></path>
   <text text-anchor="middle" dy=".4em" transform="translate(120,16)">
    hpx
   </text>
   <text text-anchor="start" dy=".4em" transform="translate(12,48)">
    Entries
   </text>
   <text text-anchor="end" dy=".4em" transform="translate(228,48)">
    25000
   </text>
   <text text-anchor="start" dy=".4em" transform="translate(12,80)">
    Mean
   </text>
   <text text-anchor="end" dy=".4em" transform="translate(228,80)">
    0.003163
   </text>
   <text text-anchor="start" dy=".4em" transform="translate(12,112)">
    Std Dev
   </text>
   <text text-anchor="end" dy=".4em" transform="translate(228,112)">
    1.004
   </text>
   <path d="M0,32h240" style="stroke: black; stroke-width: 1;"></path>
  </g>
 </g>
</svg>
